icons/Editor/asterisk.svg

<svg viewBox="0 0 24 24" xmlns="http://www.w3.org/2000/svg"><path d="M12.9993 3L12.9991 10.267L19.2935 6.63397L20.2935 8.36602L14.0001 11.999L20.2935 15.634L19.2935 17.366L12.9991 13.732L12.9993 21H10.9993L10.9991 13.732L4.70508 17.366L3.70508 15.634L9.99808 12L3.70508 8.36602L4.70508 6.63397L10.9991 10.267L10.9993 3H12.9993Z"/></svg>

<svg xmlns="http://www.w3.org/2000/svg" viewBox="0 0 24 24">
    <g>
        <path fill="none" d="M0 0h24v24H0z"/>
        <path d="M13 3v7.267l6.294-3.633 1 1.732-6.293 3.633 6.293 3.635-1 1.732L13 13.732V21h-2v-7.268l-6.294 3.634-1-1.732L9.999 12 3.706 8.366l1-1.732L11 10.267V3z"/>
    </g>
</svg>
